papirus/22x22/apps/cs-panel.svg

<svg height="22" viewBox="0 0 44 44.000001" width="22" xmlns="http://www.w3.org/2000/svg"><g transform="translate(-2 2)"><path d="m6 2c-1.108 0-2 .892-2 2v2 28h40v-28-2c0-1.108-.892-2-2-2z" fill="#4ab3e4"/><path d="m6 38c-1.108 0-2-.892-2-2v-2h40v2c0 1.108-.892 2-2 2z" fill="#4d4d4d"/><path d="m6 2c-1.108 0-2 .892-2 2v1c0-1.108.892-2 2-2h36c1.108 0 2 .892 2 2v-1c0-1.108-.892-2-2-2z" fill="#fff" opacity=".1"/><path d="m4 35v1c0 1.108.892 2 2 2h36c1.108 0 2-.892 2-2v-1c0 1.108-.892 2-2 2h-36c-1.108 0-2-.892-2-2z" opacity=".3"/></g></svg>

<?xml version="1.0" encoding="UTF-8" standalone="no"?>
<!-- Created with Inkscape (http://www.inkscape.org/) -->

<svg
   xmlns:dc="http://purl.org/dc/elements/1.1/"
   xmlns:cc="http://creativecommons.org/ns#"
   xmlns:rdf="http://www.w3.org/1999/02/22-rdf-syntax-ns#"
   xmlns:svg="http://www.w3.org/2000/svg"
   xmlns="http://www.w3.org/2000/svg"
   xmlns:sodipodi="http://sodipodi.sourceforge.net/DTD/sodipodi-0.dtd"
   xmlns:inkscape="http://www.inkscape.org/namespaces/inkscape"
   id="svg4222"
   height="22"
   width="22"
   version="1.1"
   viewBox="0 0 44 44.000001"
   inkscape:version="0.91 r13725"
   sodipodi:docname="cs-panel.svg">
  <defs
     id="defs10" />
  <sodipodi:namedview
     pagecolor="#ffffff"
     bordercolor="#666666"
     borderopacity="1"
     objecttolerance="10"
     gridtolerance="10"
     guidetolerance="10"
     inkscape:pageopacity="0"
     inkscape:pageshadow="2"
     inkscape:window-width="1600"
     inkscape:window-height="843"
     id="namedview8"
     showgrid="false"
     inkscape:zoom="13.12"
     inkscape:cx="1.1378732"
     inkscape:cy="12"
     inkscape:window-x="0"
     inkscape:window-y="0"
     inkscape:window-maximized="1"
     inkscape:current-layer="svg4222" />
  <metadata
     id="metadata4227">
    <rdf:RDF>
      <cc:Work
         rdf:about="">
        <dc:format>image/svg+xml</dc:format>
        <dc:type
           rdf:resource="http://purl.org/dc/dcmitype/StillImage" />
        <dc:title></dc:title>
      </cc:Work>
    </rdf:RDF>
  </metadata>
  <g
     id="g4139"
     transform="translate(-2,2)">
    <path
       inkscape:connector-curvature="0"
       id="rect4203"
       d="M 6,2 C 4.892,2 4,2.892 4,4 L 4,6 4,34 44,34 44,6 44,4 C 44,2.892 43.108,2 42,2 L 6,2 Z"
       style="fill:#4ab3e4" />
    <path
       id="rect3328"
       d="M 6,38 C 4.892,38 4,37.108 4,36 l 0,-2 40,0 0,2 c 0,1.108 -0.892,2 -2,2 z"
       inkscape:connector-curvature="0"
       style="fill:#4d4d4d" />
    <path
       id="path3345"
       d="M 6,2 C 4.892,2 4,2.892 4,4 L 4,5 C 4,3.892 4.892,3 6,3 l 36,0 c 1.108,0 2,0.892 2,2 L 44,4 C 44,2.892 43.108,2 42,2 Z"
       inkscape:connector-curvature="0"
       style="opacity:0.1;fill:#ffffff" />
    <path
       inkscape:connector-curvature="0"
       id="path4141"
       d="m 4,35 0,1 c 0,1.108 0.892,2 2,2 l 36,0 c 1.108,0 2,-0.892 2,-2 l 0,-1 c 0,1.108 -0.892,2 -2,2 L 6,37 C 4.892,37 4,36.108 4,35 Z"
       style="opacity:0.3;fill:#000000;fill-opacity:1" />
  </g>
</svg>
